;FLAVOR:Repetier
;TIME:15473
;MINX:115.3
;MINY:130.3
;MINZ:0.3
;MAXX:204.7
;MAXY:189.7
;MAXZ:53.9
;Generated with Cura_SteamEngine 4.11.0
M82 ;absolute extrusion mode
G28 ;Home
M190 S60
M109 S205.0 T0
G1 Z15.0 F6000 ;Move the platform down 15mm
G92 E0
G1 F200 E3
G92 E0
G92 E0
G92 E0
G1 F1500 E-4
;LAYER_COUNT:270
;LAYER:0
M107
G0 F3600 X116.289 Y131.204 Z0.3
;TYPE:SKIRT
G1 F1500 E0
G1 F1800 X116.68 Y130.883 E0.02524
G1 X117.117 Y130.628 E0.05048
G1 X117.588 Y130.444 E0.07571
G1 X118.082 Y130.338 E0.10092
G1 X118.74 Y130.301 E0.1338
G1 X200.839 Y130.3 E4.22973
G1 X201.537 Y130.31 E4.26456
G1 X202.04 Y130.357 E4.28976
G1 X202.53 Y130.483 E4.315
G1 X202.994 Y130.685 E4.34025
G1 X203.42 Y130.957 E4.36547
G1 X203.798 Y131.292 E4.39067
G1 X204.118 Y131.683 E4.41587
G1 X204.373 Y132.12 E4.44112
G1 X204.556 Y132.591 E4.46633
G1 X204.663 Y133.085 E4.49154
G1 X204.699 Y133.74 E4.52427
G1 X204.7 Y185.804 E7.12175
G1 X204.691 Y186.531 E7.15803
G1 X204.645 Y187.034 E7.18323
G1 X204.52 Y187.524 E7.20845
G1 X204.319 Y187.988 E7.23368
G1 X204.048 Y188.415 E7.25891
G1 X203.713 Y188.794 E7.28415
G1 X203.323 Y189.115 E7.30935
G1 X202.887 Y189.371 E7.33457
G1 X202.416 Y189.554 E7.35978
G1 X201.922 Y189.662 E7.38501
G1 X201.26 Y189.699 E7.41809
G1 X119.166 Y189.7 E11.51378
G1 X118.468 Y189.691 E11.5486
G1 X117.964 Y189.644 E11.57386
G1 X117.474 Y189.519 E11.59909
G1 X117.01 Y189.318 E11.62431
G1 X116.584 Y189.047 E11.6495
G1 X116.205 Y188.712 E11.67474
G1 X115.884 Y188.321 E11.69998
G1 X115.629 Y187.885 E11.72518
G1 X115.445 Y187.414 E11.75041
G1 X115.338 Y186.92 E11.77562
G1 X115.301 Y186.244 E11.8094
G1 X115.3 Y134.131 E14.40933
G1 X115.309 Y133.466 E14.44251
G1 X115.356 Y132.962 E14.46776
G1 X115.482 Y132.473 E14.49295
G1 X115.683 Y132.009 E14.51818
G1 X115.954 Y131.582 E14.54341
G1 X116.289 Y131.204 E14.56861
G1 F1500 E10.56861
;MESH:BOX.stl
G0 F3600 X119.114 Y132.835
G0 X119.114 Y134.114
G0 X178.095 Y157.94
G0 X179.088 Y158.922
G0 X179.421 Y160.003
G1 F1500 E14.56861
G0 F3600 X179.321 Y160.003
;TYPE:WALL-INNER
G1 F1800 X179.112 Y159.187 E14.61064
G1 X179.052 Y158.938 E14.62341
G1 X178.881 Y158.706 E14.63779
G1 X178.349 Y158.139 E14.67658
G1 X178.079 Y157.976 E14.69232
G1 X177.278 Y157.724 E14.73421
G1 X176.958 Y157.702 E14.75021
G1 X176.083 Y157.901 E14.79498
G1 X175.796 Y158.041 E14.81091
G1 X175.17 Y158.619 E14.85342
G1 X174.992 Y158.887 E14.86947
G1 X174.717 Y159.77 E14.91561
G1 X174.707 Y160.083 E14.93124
G1 X174.895 Y160.926 E14.97433
G1 X175.05 Y161.199 E14.98999
G1 X175.614 Y161.84 E15.03259
G1 X175.899 Y162.002 E15.04894
G1 X176.778 Y162.29 E15.09509
G1 X177.117 Y162.287 E15.112
G1 X177.992 Y162.069 E15.15699
G1 X178.277 Y161.91 E15.17327
G1 X178.842 Y161.348 E15.21303
G1 X179.03 Y161.106 E15.22832
G1 X179.093 Y160.849 E15.24152
G1 X179.321 Y160.003 E15.28523
G0 F3600 X179.421 Y160.003
G0 X200.83 Y185.83
G0 X200.9 Y185.9
G1 F1800 X119.1 Y185.9 E19.36625
G1 X119.1 Y134.1 E21.95056
G1 X200.9 Y134.1 E26.03158
G1 X200.9 Y185.9 E28.61589
G0 F3600 X201.3 Y186.3
;TYPE:WALL-OUTER
G1 F1800 X118.7 Y186.3 E32.73683
G1 X118.7 Y133.7 E35.36105
G1 X201.3 Y133.7 E39.48198
G1 X201.3 Y186.3 E42.10621
G0 F3600 X201.1 Y186.3
G0 X200.83 Y185.83
G0 X179.389 Y160.132
G0 X178.907 Y160.001
G1 F1800 X178.724 Y159.286 E42.14303
G1 X178.682 Y159.11 E42.15205
G1 X178.573 Y158.962 E42.16122
G1 X178.095 Y158.453 E42.19606
G1 X177.913 Y158.343 E42.20667
G1 X177.203 Y158.12 E42.2438
G1 X176.989 Y158.105 E42.2545
G1 X176.217 Y158.281 E42.294
G1 X176.024 Y158.375 E42.30471
G1 X175.477 Y158.88 E42.34186
G1 X175.357 Y159.061 E42.35269
G1 X175.115 Y159.837 E42.39324
G1 X175.108 Y160.046 E42.40368
G1 X175.272 Y160.781 E42.44125
G1 X175.377 Y160.966 E42.45186
G1 X175.87 Y161.525 E42.48905
G1 X176.062 Y161.634 E42.50006
G1 X176.84 Y161.889 E42.54091
G1 X177.066 Y161.887 E42.55218
G1 X177.844 Y161.694 E42.59217
G1 X178.034 Y161.588 E42.60303
G1 X178.542 Y161.082 E42.6388
G1 X178.662 Y160.928 E42.64854
G1 X178.707 Y160.745 E42.65794
G1 X178.907 Y160.001 E42.69638
G0 F3600 X178.858 Y159.808
G0 X179.342 Y159.685
G0 X187.32 Y172.32
;TYPE:SKIN
G1 F1800 X187.057 Y172.32 E42.7095
G1 X187.32 Y172.061 E42.72791
G1 X187.32 Y172.32 E42.74084
G0 F3600 X186.435 Y172.371
G1 F1800 X186.284 Y172.52 E42.75142
G1 X185.93 Y172.72 E42.7717
G1 X186.041 Y172.72 E42.77724
G1 X186.041 Y172.198 E42.80329
G1 X184.754 Y172.926 E42.87705
G1 X184.557 Y172.579 E42.89696
G1 X185.798 Y171.876 E42.96812
G1 X188.127 Y169.58 E43.13128
G1 X188.52 Y169.072 E43.16333
G1 X188.52 Y173.52 E43.38524
G1 X183.287 Y173.52 E43.64631
G1 X183.287 Y173.92 E43.66627
G1 X188.92 Y173.92 E43.9473
G1 X188.92 Y167.901 E44.24759
G1 X187.827 Y169.314 E44.33671
G1 X185.555 Y171.554 E44.49589
G1 X182.466 Y173.301 E44.67294
G1 X179.998 Y173.92 E44.79988
G1 X182.497 Y173.92 E44.92456
G1 X182.497 Y174.32 E44.94452
G1 X130.68 Y174.32 E47.52968
G1 X130.68 Y145.68 E48.95853
G1 X189.32 Y145.68 E51.88409
G1 X189.32 Y151.727 E52.18578
G1 X188.92 Y151.727 E52.20573
G1 X188.92 Y150.899 E52.24704
G1 X188.52 Y150.899 E52.267
G1 X188.414 Y150.755 E52.27592
G1 X186.196 Y148.421 E52.43656
G1 X183.217 Y146.617 E52.61031
G1 X182.785 Y146.48 E52.63292
G1 X188.52 Y146.48 E52.91904
G1 X188.52 Y149.471 E53.06826
G1 X188.12 Y149.471 E53.08822
G1 X188.12 Y146.88 E53.21748
G1 X184.423 Y146.88 E53.40192
G1 X186.449 Y148.107 E53.52009
G1 X187.159 Y148.855 E53.57155
G1 X187.449 Y148.58 E53.59149
G1 X186.702 Y147.793 E53.64562
G1 X185.855 Y147.28 E53.69502
G1 X187.72 Y147.28 E53.78807
G1 X187.72 Y148.865 E53.86714
G1 X187.43 Y149.14 E53.88708
G1 X188.12 Y149.866 E53.93705
G1 X188.52 Y149.866 E53.95701
G1 X188.52 Y150.504 E53.98884
G1 X188.92 Y150.504 E54.00879
G1 X188.92 Y146.08 E54.22951
G1 X180.204 Y146.08 E54.66435
G1 X183.051 Y146.984 E54.81338
G1 X185.943 Y148.735 E54.98205
G1 X188.106 Y151.012 E55.13873
G1 X188.92 Y152.122 E55.2074
G1 X189.32 Y152.122 E55.22736
G1 X189.32 Y152.948 E55.26857
G1 X189.72 Y152.948 E55.28852
G1 X189.72 Y145.28 E55.67108
G1 X130.28 Y145.28 E58.63656
G1 X130.28 Y174.72 E60.10532
G1 X189.72 Y174.72 E63.0708
G1 X189.72 Y164.441 E63.58362
G1 X189.316 Y166.081 E63.66788
G1 X187.227 Y168.782 E63.83824
G1 X185.069 Y170.91 E63.98944
G1 X182.166 Y172.551 E64.15581
G1 X178.515 Y173.467 E64.34361
G1 X175.018 Y173.47 E64.51807
G1 X171.376 Y172.287 E64.70912
G1 X168.452 Y170.644 E64.87645
G1 X165.902 Y167.712 E65.07031
G1 X164.357 Y165.006 E65.22577
G1 X163.498 Y161.144 E65.42315
G1 X163.593 Y157.896 E65.58527
G1 X164.791 Y154.051 E65.78619
G1 X166.59 Y151.323 E65.94922
G1 X169.423 Y148.706 E66.14163
G1 X172.339 Y147.28 E66.30358
G1 X176.091 Y146.438 E66.49542
G1 X179.374 Y146.656 E66.65957
G1 X182.719 Y147.718 E66.83466
G1 X185.437 Y149.363 E66.99317
G1 X187.49 Y151.526 E67.14195
G1 X188.985 Y153.562 E67.26797
G1 X188.681 Y153.826 E67.28805
G1 X188.338 Y154.036 E67.30812
G1 X188.678 Y154.498 E67.33674
G1 X189.186 Y156.67 E67.44802
G1 X190.064 Y160.08 E67.6237
G1 X189.12 Y163.533 E67.80229
G1 X188.58 Y165.725 E67.91492
G1 X186.627 Y168.25 E68.07418
G1 X184.583 Y170.266 E68.21741
G1 X181.866 Y171.801 E68.37309
G1 X178.415 Y172.667 E68.5506
G1 X175.144 Y172.67 E68.71379
G1 X171.698 Y171.551 E68.89455
G1 X168.964 Y170.014 E69.05103
G1 X166.558 Y167.246 E69.234
G1 X165.111 Y164.714 E69.3795
G1 X164.3 Y161.068 E69.56584
G1 X164.389 Y158.03 E69.71748
G1 X165.521 Y154.397 E69.90732
G1 X167.204 Y151.845 E70.05983
G1 X169.879 Y149.374 E70.24152
G1 X172.606 Y148.04 E70.39297
G1 X176.153 Y147.244 E70.57434
G1 X179.224 Y147.448 E70.72789
G1 X182.387 Y148.452 E70.89345
G1 X184.931 Y149.991 E71.04179
G1 X186.874 Y152.04 E71.18266
G1 X187.87 Y153.397 E71.26664
G1 X187.568 Y153.662 E71.28669
G1 X187.224 Y153.871 E71.30677
G1 X187.936 Y154.84 E71.36676
G1 X188.406 Y156.852 E71.46984
G1 X189.236 Y160.074 E71.63584
G1 X188.348 Y163.323 E71.80387
G1 X187.844 Y165.369 E71.909
G1 X186.027 Y167.718 E72.05716
G1 X184.097 Y169.622 E72.19242
G1 X181.566 Y171.051 E72.33743
G1 X178.315 Y171.867 E72.50465
G1 X175.27 Y171.87 E72.65657
G1 X172.02 Y170.815 E72.82704
G1 X169.477 Y169.384 E72.97262
G1 X167.214 Y166.78 E73.14474
G1 X165.865 Y164.422 E73.28027
G1 X165.102 Y160.992 E73.45557
G1 X165.185 Y158.164 E73.59672
G1 X166.251 Y154.743 E73.77549
G1 X167.818 Y152.367 E73.91749
G1 X170.335 Y150.042 E74.08844
G1 X172.874 Y148.8 E74.22945
G1 X176.215 Y148.05 E74.40029
G1 X179.074 Y148.24 E74.54324
G1 X182.055 Y149.186 E74.69927
G1 X184.425 Y150.619 E74.83744
G1 X186.258 Y152.554 E74.97042
G1 X186.756 Y153.233 E75.01243
G1 X186.454 Y153.497 E75.03244
G1 X186.11 Y153.706 E75.05252
G1 X187.194 Y155.182 E75.14388
G1 X187.629 Y157.043 E75.23923
G1 X188.408 Y160.068 E75.39507
G1 X187.576 Y163.113 E75.55256
G1 X187.108 Y165.013 E75.65018
G1 X185.427 Y167.186 E75.78725
G1 X183.611 Y168.978 E75.91453
G1 X181.266 Y170.301 E76.04886
G1 X178.215 Y171.067 E76.2058
G1 X175.396 Y171.07 E76.34644
G1 X172.343 Y170.079 E76.50658
G1 X169.991 Y168.754 E76.64126
G1 X167.87 Y166.314 E76.80255
G1 X166.619 Y164.13 E76.92812
G1 X165.904 Y160.916 E77.09239
G1 X165.981 Y158.298 E77.22306
G1 X166.981 Y155.089 E77.39075
G1 X168.432 Y152.889 E77.52223
G1 X170.791 Y150.71 E77.68245
G1 X173.142 Y149.56 E77.81302
G1 X176.277 Y148.856 E77.97332
G1 X178.924 Y149.032 E78.10567
G1 X181.723 Y149.92 E78.25217
G1 X183.919 Y151.247 E78.38018
G1 X185.642 Y153.068 E78.50525
G1 X185.339 Y153.333 E78.52533
G1 X185.179 Y153.791 E78.54954
G1 X186.452 Y155.524 E78.65682
G1 X186.852 Y157.234 E78.74443
G1 X187.58 Y160.062 E78.89012
G1 X186.804 Y162.903 E79.03705
G1 X186.372 Y164.657 E79.12717
G1 X184.827 Y166.654 E79.25314
G1 X183.125 Y168.334 E79.37245
G1 X180.966 Y169.551 E79.4961
G1 X178.115 Y170.267 E79.64275
G1 X175.522 Y170.27 E79.77212
G1 X172.667 Y169.343 E79.92188
G1 X170.505 Y168.124 E80.0457
G1 X168.526 Y165.848 E80.19617
G1 X167.373 Y163.838 E80.31178
G1 X166.706 Y160.84 E80.46501
G1 X166.777 Y158.432 E80.5852
G1 X167.711 Y155.435 E80.74181
G1 X169.046 Y153.411 E80.86278
G1 X171.247 Y151.378 E81.01226
G1 X173.41 Y150.32 E81.13239
G1 X176.339 Y149.662 E81.28216
G1 X178.774 Y149.824 E81.40391
G1 X181.391 Y150.654 E81.54088
G1 X183.413 Y151.875 E81.65873
G1 X184.581 Y153.111 E81.74357
G1 X184.149 Y153.236 E81.766
G1 X183.998 Y153.66 E81.78846
G1 X184.41 Y154.096 E81.81839
G1 X185.71 Y155.866 E81.92795
G1 X186.072 Y157.416 E82.00736
G1 X186.752 Y160.056 E82.14337
G1 X186.032 Y162.693 E82.27975
G1 X185.636 Y164.301 E82.36237
G1 X184.227 Y166.122 E82.47724
G1 X182.639 Y167.69 E82.58858
G1 X180.666 Y168.801 E82.70154
G1 X178.015 Y169.467 E82.83791
G1 X175.648 Y169.47 E82.956
G1 X172.991 Y168.607 E83.09538
G1 X171.019 Y167.494 E83.20835
G1 X169.18 Y165.382 E83.34806
G1 X168.127 Y163.546 E83.45366
G1 X167.508 Y160.764 E83.59585
G1 X167.573 Y158.566 E83.70555
G1 X168.441 Y155.781 E83.85109
G1 X169.66 Y153.933 E83.96154
G1 X171.703 Y152.046 E84.10029
G1 X173.678 Y151.08 E84.20998
G1 X176.401 Y150.468 E84.34922
G1 X178.624 Y150.616 E84.46037
G1 X181.059 Y151.388 E84.58781
G1 X182.907 Y152.503 E84.69549
G1 X183.39 Y153.015 E84.7306
G1 X182.958 Y153.14 E84.75304
G1 X182.808 Y153.564 E84.77548
G1 X183.794 Y154.61 E84.84719
G1 X184.968 Y156.208 E84.94612
G1 X185.295 Y157.607 E85.0178
G1 X185.924 Y160.05 E85.14366
G1 X185.26 Y162.483 E85.26948
G1 X184.9 Y163.945 E85.3446
G1 X183.627 Y165.59 E85.44837
G1 X182.153 Y167.046 E85.55174
G1 X180.368 Y168.051 E85.65393
G1 X177.915 Y168.667 E85.78011
G1 X175.774 Y168.67 E85.88693
G1 X173.315 Y167.871 E86.01592
G1 X171.531 Y166.864 E86.11813
G1 X169.834 Y164.916 E86.24702
G1 X168.881 Y163.254 E86.3426
G1 X168.31 Y160.688 E86.47375
G1 X168.369 Y158.7 E86.57298
G1 X169.171 Y156.127 E86.70744
G1 X170.274 Y154.455 E86.80737
G1 X172.159 Y152.714 E86.93539
G1 X173.946 Y151.84 E87.03463
G1 X176.463 Y151.274 E87.16334
G1 X178.474 Y151.408 E87.26389
G1 X180.727 Y152.122 E87.3818
G1 X182.179 Y152.998 E87.46641
G1 X181.855 Y153.269 E87.48748
G1 X181.765 Y153.682 E87.50857
G1 X181.892 Y153.759 E87.51598
G1 X183.178 Y155.124 E87.60954
G1 X184.226 Y156.55 E87.69783
G1 X184.518 Y157.798 E87.76178
G1 X185.096 Y160.044 E87.87748
G1 X184.488 Y162.273 E87.99275
G1 X184.164 Y163.589 E88.06036
G1 X183.027 Y165.058 E88.15304
G1 X181.667 Y166.402 E88.24843
G1 X180.07 Y167.301 E88.33986
G1 X177.815 Y167.867 E88.45586
G1 X175.9 Y167.87 E88.5514
G1 X173.639 Y167.135 E88.67001
G1 X172.043 Y166.234 E88.76145
G1 X170.488 Y164.45 E88.87951
G1 X169.635 Y162.962 E88.96508
G1 X169.112 Y160.612 E89.08519
G1 X169.165 Y158.834 E89.17394
G1 X169.901 Y156.473 E89.29732
G1 X170.888 Y154.977 E89.38674
G1 X172.615 Y153.382 E89.50402
G1 X174.214 Y152.6 E89.59282
G1 X176.525 Y152.08 E89.711
G1 X178.324 Y152.2 E89.80096
G1 X180.395 Y152.856 E89.90934
G1 X181.051 Y153.252 E89.94757
G1 X180.728 Y153.524 E89.96863
G1 X180.638 Y153.936 E89.98967
G1 X181.384 Y154.387 E90.03316
G1 X182.562 Y155.638 E90.11889
G1 X183.484 Y156.892 E90.19654
G1 X183.738 Y157.98 E90.25228
G1 X184.268 Y160.038 E90.35831
G1 X183.716 Y162.063 E90.46302
G1 X183.428 Y163.233 E90.52314
G1 X182.427 Y164.526 E90.60472
G1 X181.181 Y165.758 E90.69214
G1 X179.772 Y166.551 E90.7728
G1 X177.715 Y167.067 E90.8786
G1 X176.026 Y167.07 E90.96287
G1 X173.963 Y166.399 E91.0711
G1 X172.555 Y165.604 E91.15177
G1 X171.142 Y163.984 E91.25901
G1 X170.389 Y162.67 E91.33457
G1 X169.914 Y160.536 E91.44364
G1 X169.961 Y158.968 E91.52191
G1 X170.631 Y156.819 E91.63421
G1 X171.502 Y155.499 E91.71311
G1 X173.071 Y154.05 E91.81966
G1 X174.482 Y153.36 E91.89802
G1 X176.587 Y152.886 E92.00567
G1 X178.174 Y152.992 E92.08502
G1 X179.889 Y153.535 E92.17477
G1 X179.527 Y153.84 E92.19839
G1 X179.647 Y154.297 E92.22196
G1 X179.731 Y154.324 E92.22636
G1 X180.876 Y155.015 E92.29308
G1 X181.946 Y156.152 E92.37098
G1 X182.742 Y157.234 E92.43799
G1 X182.961 Y158.171 E92.486
G1 X183.44 Y160.032 E92.58187
G1 X182.944 Y161.853 E92.67603
G1 X182.692 Y162.877 E92.72864
G1 X181.827 Y163.994 E92.79913
G1 X180.695 Y165.114 E92.87857
G1 X179.474 Y165.801 E92.94847
G1 X177.615 Y166.267 E93.04408
G1 X176.152 Y166.27 E93.11707
G1 X174.287 Y165.663 E93.21492
G1 X173.067 Y164.974 E93.28483
G1 X171.796 Y163.518 E93.38125
G1 X171.143 Y162.378 E93.44679
G1 X170.716 Y160.46 E93.54483
G1 X170.757 Y159.102 E93.61261
G1 X171.361 Y157.165 E93.71383
G1 X172.116 Y156.021 E93.78222
G1 X173.527 Y154.718 E93.87804
G1 X174.75 Y154.12 E93.94596
G1 X176.649 Y153.692 E94.04307
G1 X178.024 Y153.784 E94.11183
G1 X178.757 Y154.016 E94.15018
G1 X178.394 Y154.32 E94.17381
G1 X178.515 Y154.778 E94.19744
G1 X179.399 Y155.058 E94.2437
G1 X180.368 Y155.643 E94.30017
G1 X181.33 Y156.666 E94.37023
G1 X182 Y157.576 E94.42661
G1 X182.184 Y158.362 E94.46688
G1 X182.612 Y160.026 E94.5526
G1 X182.172 Y161.643 E94.63621
G1 X181.956 Y162.521 E94.68132
G1 X181.227 Y163.462 E94.7407
G1 X180.209 Y164.47 E94.81218
G1 X179.176 Y165.051 E94.87131
G1 X177.515 Y165.467 E94.95673
G1 X176.278 Y165.47 E95.01845
G1 X174.611 Y164.927 E95.10592
G1 X173.579 Y164.344 E95.16505
G1 X172.45 Y163.052 E95.25065
G1 X171.897 Y162.086 E95.30618
G1 X171.518 Y160.384 E95.39318
G1 X171.553 Y159.236 E95.45048
G1 X172.091 Y157.511 E95.54063
G1 X172.73 Y156.543 E95.59849
G1 X173.983 Y155.386 E95.68358
G1 X175.018 Y154.88 E95.74106
G1 X176.711 Y154.498 E95.82764
G1 X177.67 Y154.563 E95.8756
G1 X177.49 Y154.951 E95.89694
G1 X177.616 Y155.36 E95.91829
G1 X177.724 Y155.368 E95.92369
G1 X179.067 Y155.792 E95.99395
G1 X179.86 Y156.271 E96.04018
G1 X180.714 Y157.18 E96.1024
G1 X181.258 Y157.918 E96.14814
G1 X181.404 Y158.544 E96.18021
G1 X181.784 Y160.02 E96.25625
G1 X181.4 Y161.433 E96.3293
G1 X181.22 Y162.165 E96.36691
G1 X180.627 Y162.93 E96.4152
G1 X179.723 Y163.826 E96.4787
G1 X178.878 Y164.301 E96.52706
G1 X177.415 Y164.667 E96.6023
G1 X176.404 Y164.67 E96.65274
G1 X174.935 Y164.191 E96.72982
G1 X174.091 Y163.714 E96.77819
G1 X173.104 Y162.586 E96.85297
G1 X172.651 Y161.794 E96.89849
G1 X172.32 Y160.308 E96.97444
G1 X172.349 Y159.37 E97.02126
G1 X172.821 Y157.857 E97.10033
G1 X173.344 Y157.065 E97.14769
G1 X174.439 Y156.054 E97.22204
G1 X175.286 Y155.64 E97.26907
G1 X176.773 Y155.304 E97.34513
G1 X176.561 Y155.762 E97.37031
